flaticon/sport/racing-helmet.svg

<svg xmlns="http://www.w3.org/2000/svg" width="32" height="32" viewBox="0 0 24 24">
    <path d="M6.96875 11.183594C6.96875 12.082031 7.699219 12.816406 8.601562 12.816406 9.5 12.816406 10.234375 12.082031 10.234375 11.183594 10.234375 10.285156 9.5 9.550781 8.601562 9.550781 7.699219 9.550781 6.96875 10.285156 6.96875 11.183594zM9.417969 11.183594C9.417969 11.632812 9.050781 12 8.601562 12 8.152344 12 7.785156 11.632812 7.785156 11.183594 7.785156 10.734375 8.152344 10.367188 8.601562 10.367188 9.050781 10.367188 9.417969 10.734375 9.417969 11.183594zM7.914062 18.597656C5.726562 18.777344 3.800781 17.148438 3.617188 14.960938 3.597656 14.734375 3.40625 14.5625 3.175781 14.589844 2.953125 14.605469 2.785156 14.804688 2.804688 15.027344 3.011719 17.527344 5.113281 19.425781 7.582031 19.425781 7.714844 19.425781 7.847656 19.421875 7.980469 19.410156 8.207031 19.390625 8.375 19.195312 8.355469 18.96875 8.335938 18.746094 8.144531 18.574219 7.914062 18.597656zM7.914062 18.597656"/>
    <path d="M 23.921875 13.613281 C 24.070312 13.160156 24.007812 12.667969 23.753906 12.261719 L 19.808594 6.019531 C 19.375 5.328125 18.46875 5.089844 17.742188 5.476562 L 17.554688 5.582031 C 17.535156 5.570312 17.515625 5.550781 17.496094 5.539062 C 17.410156 5.449219 17.167969 5.214844 16.789062 4.90625 C 13.363281 2.152344 8.484375 1.859375 4.648438 4.179688 C 2.417969 5.53125 1.019531 7.269531 0.492188 9.316406 C 0.414062 9.558594 -1.429688 15.269531 2.5625 19.679688 C 2.753906 19.917969 3.785156 20.832031 8.335938 21.234375 C 9.445312 21.332031 10.570312 21.378906 11.710938 21.378906 C 13.921875 21.378906 16.183594 21.195312 18.46875 20.828125 C 20.371094 20.523438 21.878906 20.175781 22.953125 19.800781 C 23.070312 19.761719 23.164062 19.667969 23.203125 19.550781 C 23.246094 19.433594 24.1875 16.679688 23.257812 14.621094 C 23.25 14.605469 23.242188 14.589844 23.234375 14.574219 L 23.171875 14.472656 C 23.523438 14.300781 23.796875 13.996094 23.921875 13.613281 Z M 22.492188 19.097656 C 21.476562 19.429688 20.082031 19.742188 18.339844 20.023438 C 14.945312 20.570312 11.601562 20.703125 8.410156 20.421875 C 4.058594 20.035156 3.207031 19.175781 3.203125 19.175781 C 3.195312 19.164062 3.1875 19.152344 3.175781 19.144531 C -0.5 15.089844 1.25 9.628906 1.273438 9.546875 C 1.753906 7.683594 3.03125 6.113281 5.070312 4.878906 C 8.613281 2.734375 13.117188 3 16.277344 5.542969 C 16.515625 5.738281 16.695312 5.898438 16.804688 6.003906 L 13.296875 7.960938 C 13.125 8.054688 12.941406 8.125 12.753906 8.167969 L 12.640625 8.195312 C 12.007812 8.339844 10.949219 8.585938 8.984375 8.179688 C 7.925781 7.964844 6.863281 8.375 6.214844 9.253906 C 6.132812 9.363281 6.0625 9.476562 5.996094 9.59375 C 5.570312 10.386719 5.554688 11.320312 5.964844 12.128906 C 5.976562 12.160156 5.988281 12.191406 6.003906 12.21875 C 6.050781 12.304688 6.097656 12.390625 6.152344 12.476562 C 6.402344 12.890625 6.703125 13.273438 7.035156 13.625 C 7.957031 14.59375 9.164062 15.308594 10.503906 15.644531 C 10.585938 15.664062 10.683594 15.691406 10.785156 15.71875 C 10.8125 15.726562 10.835938 15.734375 10.863281 15.742188 C 11.640625 15.960938 12.929688 16.320312 14.839844 16.320312 C 16.71875 16.320312 19.207031 15.96875 22.40625 14.78125 L 22.523438 14.980469 C 23.179688 16.460938 22.671875 18.480469 22.492188 19.097656 Z M 14.628906 15.496094 C 12.9375 15.46875 11.78125 15.148438 11.078125 14.953125 C 10.976562 14.925781 10.886719 14.898438 10.800781 14.878906 C 10.765625 14.867188 10.734375 14.859375 10.703125 14.851562 C 9.765625 14.617188 8.90625 14.171875 8.183594 13.578125 C 7.65625 13.144531 7.203125 12.632812 6.851562 12.054688 C 6.804688 11.976562 6.761719 11.902344 6.71875 11.824219 C 6.582031 11.574219 6.503906 11.304688 6.484375 11.035156 C 6.453125 10.582031 6.585938 10.125 6.871094 9.734375 C 6.925781 9.664062 6.980469 9.597656 7.042969 9.535156 C 7.0625 9.515625 7.082031 9.5 7.101562 9.480469 C 7.144531 9.4375 7.1875 9.398438 7.234375 9.363281 C 7.257812 9.34375 7.28125 9.324219 7.308594 9.304688 C 7.351562 9.273438 7.398438 9.242188 7.449219 9.214844 C 7.472656 9.199219 7.5 9.183594 7.523438 9.167969 C 7.578125 9.140625 7.636719 9.113281 7.691406 9.089844 C 7.710938 9.082031 7.730469 9.070312 7.75 9.0625 C 7.832031 9.035156 7.910156 9.007812 7.992188 8.988281 C 8.007812 8.988281 8.023438 8.984375 8.035156 8.980469 C 8.101562 8.96875 8.171875 8.957031 8.238281 8.949219 C 8.269531 8.949219 8.296875 8.945312 8.324219 8.945312 C 8.375 8.941406 8.421875 8.941406 8.46875 8.945312 C 8.585938 8.945312 8.703125 8.957031 8.820312 8.980469 C 9.355469 9.089844 9.835938 9.15625 10.261719 9.1875 C 10.402344 12.058594 12.136719 14.441406 14.628906 15.496094 Z M 23.144531 13.359375 C 23.082031 13.554688 22.949219 13.699219 22.769531 13.769531 C 22.5625 13.851562 22.367188 13.917969 22.167969 13.996094 C 21.890625 14.097656 21.617188 14.199219 21.351562 14.289062 C 21.238281 14.324219 21.132812 14.359375 21.023438 14.394531 C 20.757812 14.480469 20.492188 14.566406 20.234375 14.640625 C 20.140625 14.671875 20.050781 14.695312 19.957031 14.71875 C 19.695312 14.792969 19.4375 14.863281 19.1875 14.925781 C 19.109375 14.945312 19.039062 14.960938 18.964844 14.976562 C 18.703125 15.039062 18.449219 15.097656 18.203125 15.144531 C 18.148438 15.15625 18.09375 15.164062 18.039062 15.175781 C 17.867188 15.207031 17.703125 15.234375 17.539062 15.261719 C 14.042969 15.261719 11.28125 12.632812 11.078125 9.210938 C 11.882812 9.199219 12.449219 9.074219 12.824219 8.988281 L 12.933594 8.964844 C 13.199219 8.902344 13.453125 8.804688 13.695312 8.671875 L 17.691406 6.441406 L 18.132812 6.195312 C 18.480469 6.011719 18.910156 6.125 19.121094 6.457031 L 23.0625 12.699219 C 23.1875 12.894531 23.214844 13.140625 23.144531 13.359375 Z M 23.144531 13.359375"/>
</svg>

<svg xmlns="http://www.w3.org/2000/svg" width="32" height="32" viewBox="0 0 24 24">
    <path d="M6.969 11.184c0 .898.73 1.632 1.633 1.632.898 0 1.632-.734 1.632-1.632 0-.899-.734-1.633-1.632-1.633-.903 0-1.633.734-1.633 1.633zm2.449 0c0 .449-.367.816-.816.816a.819.819 0 0 1-.817-.816c0-.45.367-.817.817-.817.449 0 .816.367.816.817zm0 0M7.914 18.598a3.987 3.987 0 0 1-4.297-3.637.398.398 0 0 0-.441-.371.404.404 0 0 0-.371.437A4.802 4.802 0 0 0 7.98 19.41a.408.408 0 1 0-.066-.812zm0 0"/>
    <path d="M23.922 13.613a1.602 1.602 0 0 0-.168-1.351L19.809 6.02a1.571 1.571 0 0 0-2.067-.543l-.187.105c-.02-.012-.04-.031-.059-.043a8.506 8.506 0 0 0-.707-.633C13.363 2.152 8.484 1.86 4.65 4.18 2.417 5.53 1.018 7.27.491 9.316.414 9.56-1.43 15.27 2.562 19.68c.192.238 1.223 1.152 5.774 1.554 1.11.098 2.234.145 3.375.145 2.21 0 4.473-.184 6.758-.55 1.902-.306 3.41-.653 4.484-1.028a.398.398 0 0 0 .25-.25c.043-.117.985-2.871.055-4.93l-.024-.047-.062-.101a1.46 1.46 0 0 0 .75-.86zm-1.43 5.485c-1.015.332-2.41.644-4.152.925-3.395.547-6.738.68-9.93.399-4.351-.387-5.203-1.246-5.207-1.246-.008-.012-.015-.024-.027-.031C-.5 15.09 1.25 9.629 1.273 9.547c.48-1.863 1.758-3.434 3.797-4.668C8.613 2.734 13.117 3 16.277 5.543c.239.195.418.355.528.46l-3.508 1.958a2.133 2.133 0 0 1-.543.207l-.113.027c-.633.145-1.692.39-3.657-.015a2.737 2.737 0 0 0-2.77 1.074 2.72 2.72 0 0 0-.25 2.875.623.623 0 0 0 .04.09 6.801 6.801 0 0 0 1.031 1.406 7.234 7.234 0 0 0 3.469 2.02c.082.02.18.046.281.074l.078.023c.778.219 2.067.578 3.977.578 1.879 0 4.367-.351 7.566-1.539l.117.2c.657 1.48.149 3.5-.03 4.117zm-7.863-3.602c-1.691-.027-2.848-.348-3.55-.543-.102-.027-.192-.055-.278-.074a1.265 1.265 0 0 0-.098-.027 6.439 6.439 0 0 1-2.52-1.274 6.044 6.044 0 0 1-1.464-1.754 1.937 1.937 0 0 1-.235-.789 1.971 1.971 0 0 1 .559-1.5l.059-.055a1.24 1.24 0 0 1 .132-.117 1.23 1.23 0 0 1 .215-.148c.024-.016.051-.031.074-.047a3.23 3.23 0 0 1 .168-.078c.02-.008.04-.02.059-.027.082-.028.16-.055.242-.075a3.647 3.647 0 0 1 .246-.04c.032.001.059-.003.086-.003a.892.892 0 0 1 .145 0c.117 0 .234.012.351.035.535.11 1.016.176 1.442.207.14 2.872 1.875 5.254 4.367 6.31zm8.516-2.137a.634.634 0 0 1-.375.41c-.207.083-.403.149-.602.227-.277.102-.55.203-.816.293-.114.035-.22.07-.329.106a25.698 25.698 0 0 1-1.835.53c-.079.02-.149.036-.223.052-.262.062-.516.12-.762.168l-.164.03c-.172.032-.336.06-.5.087-3.496 0-6.258-2.63-6.46-6.051a7.841 7.841 0 0 0 1.745-.223l.11-.023c.265-.063.52-.16.761-.293l3.996-2.23.442-.247a.753.753 0 0 1 .988.262l3.942 6.242a.787.787 0 0 1 .082.66zm0 0"/>
</svg>
